src/Pure/16/symbolic/actions/format-text-remove-formatting-symbolic.svg

<?xml version="1.0" encoding="UTF-8" standalone="no"?>
<svg
   width="16"
   height="16"
   version="1.1"
   id="svg1"
   sodipodi:docname="format-text-remove-formatting-symbolic.svg"
   inkscape:version="1.4.2 (ebf0e940d0, 2025-05-08)"
   xmlns:inkscape="http://www.inkscape.org/namespaces/inkscape"
   xmlns:sodipodi="http://sodipodi.sourceforge.net/DTD/sodipodi-0.dtd"
   xmlns="http://www.w3.org/2000/svg"
   xmlns:svg="http://www.w3.org/2000/svg">
  <defs
     id="defs1">
     <style
        id="current-color-scheme"
        type="text/css">
        .ColorScheme-Text { color:#363636; }
     </style>
  </defs>
  <sodipodi:namedview
     id="namedview1"
     pagecolor="#ffffff"
     bordercolor="#000000"
     borderopacity="0.25"
     inkscape:showpageshadow="2"
     inkscape:pageopacity="0.0"
     inkscape:pagecheckerboard="0"
     inkscape:deskcolor="#d1d1d1"
     inkscape:zoom="49.6875"
     inkscape:cx="8"
     inkscape:cy="8"
     inkscape:window-width="1920"
     inkscape:window-height="1010"
     inkscape:window-x="0"
     inkscape:window-y="0"
     inkscape:window-maximized="1"
     inkscape:current-layer="svg1" />
  <path
     id="path1"
     style="fill:currentColor;fill-opacity:1"
     class="ColorScheme-Text"
     d="M 13.298828 1.9882812 L 1.984375 13.302734 L 2.6914062 14.009766 L 14.005859 2.6953125 L 13.298828 1.9882812 z M 4 3 L 4 4 L 9.8808594 4 L 10.769531 3.1113281 C 10.522501 3.0459221 10.26816 3 10 3 L 4 3 z M 12.890625 5.2324219 L 12 6.1230469 L 12 7 L 11.123047 7 L 10.123047 8 L 12 8 L 12 12 L 6.1210938 12 L 5.2324219 12.888672 C 5.4789119 12.953772 5.73249 13 6 13 L 13 13 L 13 6 C 13 5.7327 12.955635 5.4787419 12.890625 5.2324219 z M 6 7 C 4.338 7 3 8.338 3 10 C 3 10.2675 3.0462301 10.521088 3.1113281 10.767578 L 4.0136719 9.8652344 C 4.0807349 8.8671444 4.8671044 8.0807719 5.8652344 8.0136719 L 6.8789062 7 L 6 7 z " />
</svg>

<svg width="16" height="16" version="1.1" xmlns="http://www.w3.org/2000/svg">
 <path d="m4 3v1h5.8809l0.88867-0.88867c-0.24703-0.065406-0.50137-0.11133-0.76953-0.11133h-6zm8.8906 2.2324-0.89062 0.89062v0.87695h-0.87695l-1 1h1.877v4h-5.8789l-0.88867 0.88867c0.24649 0.0651 0.50007 0.11133 0.76758 0.11133h7v-7c0-0.2673-0.04437-0.52126-0.10938-0.76758zm-6.8906 1.7676c-1.662 0-3 1.338-3 3 0 0.2675 0.046232 0.52109 0.11133 0.76758l0.90234-0.90234c0.067063-0.99809 0.85347-1.7845 1.8516-1.8516l1.0137-1.0137h-0.87891z" fill="#363636"/>
 <rect transform="rotate(-45)" x="-8.0029" y="10.81" width="16" height="1" fill="#363636"/>
</svg>
